static/assets/template/assets/img/icons/essential/detailed/Code.svg

<svg height="110" viewBox="0 0 147 110" width="147" xmlns="http://www.w3.org/2000/svg"><g fill="none" fill-rule="evenodd" transform="translate(2 1)"><path d="m137.6 97.2h-116.4c-2.8 0-5.1-2.3-5.1-5.1v-81.9c0-2.8 2.3-5.1 5.1-5.1h116.4c2.8 0 5.1 2.3 5.1 5.1v81.9c0 2.8-2.3 5.1-5.1 5.1z" fill-rule="nonzero"/><path d="m12.8 5.6c.8-2.8 3.4-4.9 6.5-4.9h117.3c3.8 0 6.8 3 6.8 6.8v82.3c0 3.5-2.6 6.4-6 6.8" stroke-linecap="round" stroke-linejoin="round" stroke-width="3"/><path d="m131.2 18v81.9c0 3.8-3.1 6.8-6.8 6.8h-117.4c-3.8 0-6.8-3.1-6.8-6.8v-89.1h123.8c4 0 7.2 3.2 7.2 7.2z" fill-rule="nonzero"/><path d="m121.7 10.8c5.2 0 9.5 4.3 9.5 9.5v79.6c0 3.8-2.9 6.8-6.5 6.8h-112.1c-3.6 0-6.5-3.1-6.5-6.8v-89.1z" fill-rule="nonzero"/><path d="m87.2 28h-87v-10.4c0-3.8 3-6.8 6.8-6.8h117.3c3.8 0 6.8 3 6.8 6.8v10.4h-22.9" fill-rule="nonzero"/><path d="m122.8 27.7h7.4" stroke-linecap="round" stroke-linejoin="round" stroke-width="3"/><path d="m113.2 27.7h.9" stroke-linecap="round" stroke-linejoin="round" stroke-width="3"/><path d="m.7 27.7h78.8" stroke-linecap="round" stroke-linejoin="round" stroke-width="3"/><circle cx="11.8" cy="19.5" fill-rule="nonzero" r="2.9"/><circle cx="21.5" cy="19.5" fill-rule="nonzero" r="2.9"/><circle cx="31.2" cy="19.5" fill-rule="nonzero" r="2.9"/><g stroke-linecap="round" stroke-linejoin="round" stroke-width="3"><path d="m47.8 82.9-14.3-17.1 14.3-17.1"/><path d="m83.9 82.9 14.3-17.1-14.3-17.1"/><path d="m72.1 48.3-12.5 35.8"/><path d="m.2 67.4v-1.1"/><path d="m.2 60.6v-43.1c0-3.8 3-6.8 6.8-6.8h117.3c3.8 0 6.8 3 6.8 6.8v82.3c0 3.8-3 6.8-6.8 6.8h-117.3c-3.8 0-6.8-3-6.8-6.8v-19.3"/></g></g></svg>

<?xml version="1.0" encoding="UTF-8"?>
<svg width="147px" height="110px" viewBox="0 0 147 110" version="1.1" xmlns="http://www.w3.org/2000/svg" xmlns:xlink="http://www.w3.org/1999/xlink">
    <!-- Generator: Sketch 51.2 (57519) - http://www.bohemiancoding.com/sketch -->
    <title>Code</title>
    <desc>Created with Sketch.</desc>
    <defs></defs>
    <g id="Page-1" stroke="none" stroke-width="1" fill="none" fill-rule="evenodd">
        <g id="Code" transform="translate(2.000000, 1.000000)">
            <path d="M137.6,97.2 L21.2,97.2 C18.4,97.2 16.1,94.9 16.1,92.1 L16.1,10.2 C16.1,7.4 18.4,5.1 21.2,5.1 L137.6,5.1 C140.4,5.1 142.7,7.4 142.7,10.2 L142.7,92.1 C142.7,94.9 140.4,97.2 137.6,97.2 Z" id="Shape" class="fill-primary-200" fill-rule="nonzero"></path>
            <path d="M12.8,5.6 C13.6,2.8 16.2,0.7 19.3,0.7 L136.6,0.7 C140.4,0.7 143.4,3.7 143.4,7.5 L143.4,89.8 C143.4,93.3 140.8,96.2 137.4,96.6" id="Shape" class="stroke-primary-400" stroke-width="3" stroke-linecap="round" stroke-linejoin="round"></path>
            <path d="M131.2,18 L131.2,99.9 C131.2,103.7 128.1,106.7 124.4,106.7 L7,106.7 C3.2,106.7 0.2,103.6 0.2,99.9 L0.2,10.8 L124,10.8 C128,10.8 131.2,14 131.2,18 Z" id="Shape" class="fill-neutral" fill-rule="nonzero"></path>
            <path d="M121.7,10.8 C126.9,10.8 131.2,15.1 131.2,20.3 L131.2,99.9 C131.2,103.7 128.3,106.7 124.7,106.7 L12.6,106.7 C9,106.7 6.1,103.6 6.1,99.9 L6.1,10.8 L121.7,10.8 Z" id="Shape" class="fill-primary-300" fill-rule="nonzero"></path>
            <path d="M87.2,28 L0.2,28 L0.2,17.6 C0.2,13.8 3.2,10.8 7,10.8 L124.3,10.8 C128.1,10.8 131.1,13.8 131.1,17.6 L131.1,28 L108.2,28" id="Shape" class="fill-neutral" fill-rule="nonzero"></path>
            <path d="M122.8,27.7 L130.2,27.7" id="Shape" class="stroke-primary" stroke-width="3" stroke-linecap="round" stroke-linejoin="round"></path>
            <path d="M113.2,27.7 L114.1,27.7" id="Shape" class="stroke-primary" stroke-width="3" stroke-linecap="round" stroke-linejoin="round"></path>
            <path d="M0.7,27.7 L79.5,27.7" id="Shape" class="stroke-primary" stroke-width="3" stroke-linecap="round" stroke-linejoin="round"></path>
            <circle id="Oval" class="fill-primary-300" fill-rule="nonzero" cx="11.8" cy="19.5" r="2.9"></circle>
            <circle id="Oval" class="fill-primary-200" fill-rule="nonzero" cx="21.5" cy="19.5" r="2.9"></circle>
            <circle id="Oval" class="fill-primary-200" fill-rule="nonzero" cx="31.2" cy="19.5" r="2.9"></circle>
            <polyline id="Shape" class="stroke-primary" stroke-width="3" stroke-linecap="round" stroke-linejoin="round" points="47.8 82.9 33.5 65.8 47.8 48.7"></polyline>
            <polyline id="Shape" class="stroke-primary" stroke-width="3" stroke-linecap="round" stroke-linejoin="round" points="83.9 82.9 98.2 65.8 83.9 48.7"></polyline>
            <path d="M72.1,48.3 L59.6,84.1" id="Shape" class="stroke-primary" stroke-width="3" stroke-linecap="round" stroke-linejoin="round"></path>
            <path d="M0.2,67.4 L0.2,66.3" id="Shape" class="stroke-primary" stroke-width="3" stroke-linecap="round" stroke-linejoin="round"></path>
            <path d="M0.2,60.6 L0.2,17.5 C0.2,13.7 3.2,10.7 7,10.7 L124.3,10.7 C128.1,10.7 131.1,13.7 131.1,17.5 L131.1,99.8 C131.1,103.6 128.1,106.6 124.3,106.6 L7,106.6 C3.2,106.6 0.2,103.6 0.2,99.8 L0.2,80.5" id="Shape" class="stroke-primary" stroke-width="3" stroke-linecap="round" stroke-linejoin="round"></path>
        </g>
    </g>
</svg>
